X:1
T:Title
%%score { ( 1 3 ) | ( 2 4 ) }
L:1/8
M:6/4
K:Bb
V:1 treble nm="Grand Piano"
V:3 treble 
V:2 bass 
V:4 bass 
V:1
 z6 z4[Q:1/4=132] [DF]2 | [Fd]2 [Ge]2 [Fd]2 [Fd]2 [Ec]2 [DB]2 | c2 B3 G [DF]6 | E2 F2 A2 c6 | %4
 D2 [DF]2 [DB]2 [Fd]4 [DF]2 | [Fd]2 [Ge]2 [Fd]2 [Fd]2 [Ec]2 [DB]2 | c2 B3 G [DF]6 | %7
 E2 F2 A2 c2 d3 c |[M:5/4] [B,DB]2- [B,DB]2- [B,DB]6 |[M:1/4] z2 |[M:6/4] c12 |[M:5/4] B2- B2- B6 | %12
[M:1/4] [DBd]2 |[M:6/4] [=EBc]2 [EBc]2 [EBc]2 [B=e]2 [Bd]2 [Be]2 | [Af]4 [B=e]2 _e4 F2 | %15
 [Fd]2 [Ge]2 [Fd]2 [Fd]2 [Ec]2 [DB]2 | c2 B3 G [DF]6 | E2 F2 A2 c2 d3 c | %18
[M:5/4] [DB]2- [DB]2- [DB]6 |] %19
V:2
 z6 z4 [B,,B,]2 | [B,,B,]2 [B,,B,]2 [B,,B,]2 [B,,B,]2 [B,,B,]2 [B,,F,]2 | %2
 [E,G,E]2 [E,G,E]3 [E,B,E] [B,,B,]6 | [F,A,C]2 [F,A,E]2 [F,CE]2 [F,A,E]6 | %4
 [B,,F,]2 [B,,B,]2 [B,,F,]2 [B,,B,]4 [B,,B,]2 | %5
 [B,,B,]2 [B,,B,]2 [B,,B,]2 [B,,B,]2 [B,,B,]2 [B,,F,]2 | [E,G,E]2 [E,G,E]3 [E,B,E] [B,,B,]6 | %7
 [F,A,C]2 [F,A,E]2 [F,CE]2 [F,A,E]2 [F,A,F]3 [F,A,E] |[M:5/4] B,,2- B,,2- B,,6 | %9
[M:1/4][K:treble] F2 |[M:6/4] E12[K:bass][K:treble] |[M:5/4] G2- G2- G6 |[M:1/4][K:bass] G,2 | %13
[M:6/4] C,2 C,2 C,2 [C,C]2 [C,C]2 [C,C]2 | [F,C]4[K:treble] [G,C]2 [A,CF]4[K:bass] [F,A,]2 | %15
 [B,,B,]2 [B,,B,]2 [B,,B,]2 [B,,B,]2 [B,,B,]2 [B,,F,]2 | [E,G,E]2 [E,G,E]3 [E,B,E] [B,,B,]6 | %17
 [F,A,C]2 [F,A,E]2 [F,CE]2 [F,A,E]2 [F,A,F]3 [F,A,E] |[M:5/4] [B,,B,]2- [B,,B,]2- [B,,B,]6 |] %19
V:3
 x12 | x12 | x12 | x12 | x12 | x12 | x12 | x12 |[M:5/4] x10 |[M:1/4] x2 | %10
[M:6/4] z2 A,2 A,2 A,4 d2 |[M:5/4] z2 D2 D2 D4 |[M:1/4] x2 |[M:6/4] x12 | x12 | x12 | x12 | x12 | %18
[M:5/4] x10 |] %19
V:4
 x12 | x12 | x12 | x12 | x12 | x12 | x12 | x12 |[M:5/4] x10 |[M:1/4][K:treble] x2 | %10
[M:6/4] z2[K:bass] F,2 F,2 F,4[K:treble] F2 |[M:5/4] z2 G,2 G,2 G,4 |[M:1/4][K:bass] x2 | %13
[M:6/4] x12 | x4[K:treble] x6[K:bass] x2 | x12 | x12 | x12 |[M:5/4] x10 |] %19

